X:17
T:Aubades
O:France
A:Provence
C:Anonyme
R:Air
S:Carnet du tambourinaire Ginas (1924)
Z:Transcrit et/ou corrig? par Michel BELLON - 2005-07-23
Z:Pour toute observation mailto:galouvielle@free.fr
M:2/4
L:1/8
K:Bb
T:N?1
f2 fe | d2d2 | e2ed | c2c2 | d2dc | BABc | dcde | f2F2 :|
cc de | d2c=B | c2de | d2c_B | c2f2 | edc=B | c2cf | g3e | f3d | e3c | dcde | f2B2 | dcBA | B4 |]
T:N?2
Z:Transcrit et/ou corrig? par Michel BELLON - 2005-07-23
Z:Pour toute observation mailto:galouvielle@free.fr
M:C|
K:Bb
d2dc | B2BA Bcde | f2c2 d2dc |1 BABd cBAG | F4 :|2 BABc dcde | f4 || 
fede | f2f_a gfed | e2c2 edcd | e2eg fedc | d2B2F2FF | B3F B>df>d | c3F c>eg>e | d2Bf fedc | B4 |]
T:N?3 (probablement mal ?crite)
Z:Transcrit et/ou corrig? par Michel BELLON - 2005-07-23
Z:Pour toute observation mailto:galouvielle@free.fr
M:2/4
K:F
f>g f>e | fc/d/ c/B/A/G/ | cF f/>g/f/>e/ | d2c/d/ fe/d/ | c3z | 
c>B A>B | cc/c/ d/c/B/A/ | dG B/G/B/A/ | BB/B/ c/B/A/G/ | AF f/g/f/e/ | dd g/a/g/f/ | e>c d/e/f/g/ | a>g b>g | fe fz |]
T:N?4
Z:Transcrit et/ou corrig? par Michel BELLON - 2005-07-23
Z:Pour toute observation mailto:galouvielle@free.fr
M:2/4
K:Bb
d2e2 | f2 g/f/e | d2b2 | f3z | d2e2 | f2 g/f/e | d2c2 | B3z :|
fedc | BABc | dBfe | d2c2 | fedc | BABc | d2c2 | B3z |]
T:N?5
Z:Transcrit et/ou corrig? par Michel BELLON - 2005-07-23
Z:Pour toute observation mailto:galouvielle@free.fr
M:2/4
K:Bb
b>gf>d | e>cd>B | b>gf>d | e>cB2 :| F>GA>B | c>de>c | f>ed>B | edc2 | F>GA>B | c>de2 |
f(3g/f/e/ dB | c>AB>c | BAG2 | G>GG>A | Bc F2 | F>FF>F | B2d2 | fedc | B2ff | B2z2 |]
T:N?6
K:F
cc/B/ Af | c2A2 | dd/c/ BA | A2z=A | cc/B/ Ab | ^f2g2 | cB/A/ Gc | F2z2 :| 
c>BA>B | d>B gz | F>AG>A | B>cd2 | f>ed>c | =B>G fz | e>dc>B | G>c Fz |]
T:N?7
Z:Transcrit et/ou corrig? par Michel BELLON - 2005-07-23
Z:Pour toute observation mailto:galouvielle@free.fr
M:2/4
L:1/16
K:F
c>BA>B | c2f2 e>fg>e | f2c2 f>ed>c | c>Bd>B B>Ac>A | B2G2 c>BA>B | c2f2 e>fg>e | f2c2 f>ed>c | e>dc>B A2G2 | F2z2 ||
G2ce | g2g2 f>ed>c | =Bdf2 ceg2 | a>gf>e f>ed>c | =B2G2 G2ce | g2g2 f>ed>c | =Bdf2 ceg2 | a>gf>e e>dc>=B | c4 |]
<end>
<start>
